images/bullet2.svg

<svg xmlns="http://www.w3.org/2000/svg" xmlns:xlink="http://www.w3.org/1999/xlink" viewBox="292.523 346.523 14 10.366" width="40" height="25.47"><defs><path d="M303.52 350.39c0 1.93-2.24 3.5-5 3.5s-5-1.57-5-3.5 2.24-2.87 5-2.87 5 .94 5 2.87z" id="b"/><path d="M300.4 350.58c0 1.16-.84 2.1-1.88 2.1-1.03 0-1.87-.94-1.87-2.1 0-1.16.84-2.1 1.87-2.1 1.04 0 1.88.94 1.88 2.1z" id="d"/></defs><use xlink:href="#a" fill-opacity="0" stroke="#000"/><use xlink:href="#b" fill="#fbf1ce"/><use xlink:href="#c" fill-opacity="0" stroke="#000"/><use xlink:href="#d" fill="#a82709"/></svg>

<?xml version="1.0" encoding="UTF-8" standalone="no"?>
<!DOCTYPE svg PUBLIC "-//W3C//DTD SVG 1.1//EN" "http://www.w3.org/Graphics/SVG/1.1/DTD/svg11.dtd">
<svg version="1.1" xmlns="http://www.w3.org/2000/svg" xmlns:xlink="http://www.w3.org/1999/xlink" preserveAspectRatio="xMidYMid meet" viewBox="292.52272727272714 346.52272727272765 14 10.36638315224468" width="40" height="25.47"><defs><path d="" id="a3Re40EtI"></path><path d="M303.52 350.39C303.52 352.32 301.28 353.89 298.52 353.89C295.76 353.89 293.52 352.32 293.52 350.39C293.52 348.46 295.76 347.52 298.52 347.52C301.28 347.52 303.52 348.46 303.52 350.39Z" id="fvVYjM9Ko"></path><path d="" id="b3VtKaHG8"></path><path d="M300.4 350.58C300.4 351.74 299.56 352.68 298.52 352.68C297.49 352.68 296.65 351.74 296.65 350.58C296.65 349.42 297.49 348.48 298.52 348.48C299.56 348.48 300.4 349.42 300.4 350.58Z" id="hipII3nSK"></path></defs><g><g><g><use xlink:href="#a3Re40EtI" opacity="1" fill-opacity="0" stroke="#000000" stroke-width="1" stroke-opacity="1"></use></g></g><g><use xlink:href="#fvVYjM9Ko" opacity="1" fill="#fbf1ce" fill-opacity="1"></use></g><g><g><use xlink:href="#b3VtKaHG8" opacity="1" fill-opacity="0" stroke="#000000" stroke-width="1" stroke-opacity="1"></use></g></g><g><use xlink:href="#hipII3nSK" opacity="1" fill="#a82709" fill-opacity="1"></use></g></g></svg>
